Numix/16/status/indicator-keyboard-Ne.svg

<?xml version="1.0" encoding="UTF-8" standalone="no"?>
<svg
   xmlns:dc="http://purl.org/dc/elements/1.1/"
   xmlns:cc="http://creativecommons.org/ns#"
   xmlns:rdf="http://www.w3.org/1999/02/22-rdf-syntax-ns#"
   xmlns:svg="http://www.w3.org/2000/svg"
   xmlns="http://www.w3.org/2000/svg"
   xmlns:sodipodi="http://sodipodi.sourceforge.net/DTD/sodipodi-0.dtd"
   xmlns:inkscape="http://www.inkscape.org/namespaces/inkscape"
   viewBox="0 0 16 16"
   id="svg2"
   version="1.1"
   inkscape:version="0.91 r13725"
   sodipodi:docname="indicator-keyboard-Ne.svg">
  <metadata
     id="metadata13">
    <rdf:RDF>
      <cc:Work
         rdf:about="">
        <dc:format>image/svg+xml</dc:format>
        <dc:type
           rdf:resource="http://purl.org/dc/dcmitype/StillImage" />
      </cc:Work>
    </rdf:RDF>
  </metadata>
  <defs
     id="defs11" />
  <sodipodi:namedview
     pagecolor="#ffffff"
     bordercolor="#666666"
     borderopacity="1"
     objecttolerance="10"
     gridtolerance="10"
     guidetolerance="10"
     inkscape:pageopacity="0"
     inkscape:pageshadow="2"
     inkscape:window-width="640"
     inkscape:window-height="480"
     id="namedview9"
     showgrid="false"
     inkscape:zoom="14.75"
     inkscape:cx="8"
     inkscape:cy="8"
     inkscape:window-x="65"
     inkscape:window-y="24"
     inkscape:window-maximized="0"
     inkscape:current-layer="svg2" />
  <path
     style="fill:#ececec;fill-opacity:1"
     d="M 1.5996094 0 C 0.71320937 2.9605947e-16 0 0.71320937 0 1.5996094 L 0 14.400391 C 2.9605947e-16 15.286791 0.71320937 16 1.5996094 16 L 14.400391 16 C 15.286791 16 16 15.286791 16 14.400391 L 16 1.5996094 C 16 0.71320937 15.286791 0 14.400391 0 L 1.5996094 0 z M 3.0136719 4.8320312 L 3.5 4.8320312 C 3.806 5.1740312 4.1324688 5.5695313 4.4804688 6.0195312 C 4.8344688 6.4635313 5.179625 6.9206719 5.515625 7.3886719 C 5.851625 7.8506719 6.1631719 8.3020938 6.4511719 8.7460938 C 6.7451719 9.1900937 6.985875 9.5782031 7.171875 9.9082031 L 7.171875 4.8320312 L 7.7753906 4.8320312 L 7.7753906 11.068359 L 7.2617188 11.068359 C 7.1477187 10.858359 7.0003125 10.612078 6.8203125 10.330078 C 6.6463125 10.048078 6.4541406 9.7496406 6.2441406 9.4316406 C 6.0341406 9.1076406 5.812125 8.7774062 5.578125 8.4414062 C 5.344125 8.0994063 5.1109531 7.7691719 4.8769531 7.4511719 C 4.6489531 7.1271719 4.4231719 6.8249688 4.2011719 6.5429688 C 3.9851719 6.2609688 3.7911875 6.0165 3.6171875 5.8125 L 3.6171875 11.068359 L 3.0136719 11.068359 L 3.0136719 4.8320312 z M 11.113281 6.3085938 C 11.683281 6.3085938 12.136656 6.4932344 12.472656 6.8652344 C 12.814656 7.2372344 12.986328 7.8119375 12.986328 8.5859375 C 12.986328 8.6339375 12.982563 8.6805156 12.976562 8.7285156 C 12.976562 8.7765156 12.97475 8.8212812 12.96875 8.8632812 L 9.7011719 8.8632812 C 9.7191719 9.4332812 9.8590472 9.8717345 10.123047 10.177734 C 10.387047 10.483734 10.808766 10.636719 11.384766 10.636719 C 11.702766 10.636719 11.954625 10.606875 12.140625 10.546875 C 12.326625 10.486875 12.460922 10.436531 12.544922 10.394531 L 12.652344 10.898438 C 12.568344 10.946438 12.409781 11.002359 12.175781 11.068359 C 11.947781 11.134359 11.677234 11.167969 11.365234 11.167969 C 10.957234 11.167969 10.610266 11.108281 10.322266 10.988281 C 10.034266 10.868281 9.7973281 10.700375 9.6113281 10.484375 C 9.4253281 10.268375 9.2890781 10.01275 9.2050781 9.71875 C 9.1210781 9.41875 9.0800781 9.0922813 9.0800781 8.7382812 C 9.0800781 8.3302812 9.136 7.9757812 9.25 7.6757812 C 9.37 7.3697812 9.5229844 7.1141563 9.7089844 6.9101562 C 9.9009844 6.7061563 10.117422 6.5569375 10.357422 6.4609375 C 10.603422 6.3589375 10.855281 6.3085938 11.113281 6.3085938 z M 11.123047 6.8300781 C 10.913047 6.8300781 10.724641 6.8710781 10.556641 6.9550781 C 10.394641 7.0390781 10.249047 7.1548281 10.123047 7.2988281 C 10.003047 7.4368281 9.9079375 7.5972031 9.8359375 7.7832031 C 9.7699375 7.9692031 9.73075 8.1651406 9.71875 8.3691406 L 12.382812 8.3691406 C 12.370812 7.8831406 12.257016 7.504375 12.041016 7.234375 C 11.825016 6.964375 11.519047 6.8300781 11.123047 6.8300781 z "
     id="path4" />
</svg>

<svg xmlns="http://www.w3.org/2000/svg" viewBox="0 0 16 16">
 <path d="m 1.6 0 c -0.886 0 -1.6 0.713 -1.6 1.6 l 0 12.801 c 0 0.886 0.713 1.6 1.6 1.6 l 12.801 0 c 0.886 0 1.6 -0.713 1.6 -1.6 l 0 -12.801 c 0 -0.886 -0.713 -1.6 -1.6 -1.6 l -12.801 0 z m 1.414 4.832 l 0.486 0 c 0.306 0.342 0.632 0.738 0.98 1.188 c 0.354 0.444 0.699 0.901 1.035 1.369 c 0.336 0.462 0.648 0.913 0.936 1.357 c 0.294 0.444 0.535 0.832 0.721 1.162 l 0 -5.076 l 0.604 0 l 0 6.236 l -0.514 0 c -0.114 -0.21 -0.261 -0.456 -0.441 -0.738 c -0.174 -0.282 -0.366 -0.58 -0.576 -0.898 c -0.21 -0.324 -0.432 -0.654 -0.666 -0.99 c -0.234 -0.342 -0.467 -0.672 -0.701 -0.99 c -0.228 -0.324 -0.454 -0.626 -0.676 -0.908 c -0.216 -0.282 -0.41 -0.526 -0.584 -0.73 l 0 5.256 l -0.604 0 l 0 -6.236 z m 8.1 1.477 c 0.57 0 1.023 0.185 1.359 0.557 c 0.342 0.372 0.514 0.947 0.514 1.721 c 0 0.048 -0.004 0.095 -0.01 0.143 c 0 0.048 -0.002 0.093 -0.008 0.135 l -3.268 0 c 0.018 0.57 0.158 1.01 0.422 1.314 c 0.264 0.306 0.686 0.459 1.262 0.459 c 0.318 0 0.57 -0.03 0.756 -0.09 c 0.186 -0.06 0.32 -0.11 0.404 -0.152 l 0.107 0.504 c -0.084 0.048 -0.243 0.104 -0.477 0.17 c -0.228 0.066 -0.499 0.1 -0.811 0.1 c -0.408 0 -0.755 -0.06 -1.043 -0.18 c -0.288 -0.12 -0.525 -0.288 -0.711 -0.504 c -0.186 -0.216 -0.322 -0.472 -0.406 -0.766 c -0.084 -0.3 -0.125 -0.626 -0.125 -0.98 c 0 -0.408 0.056 -0.762 0.17 -1.062 c 0.12 -0.306 0.273 -0.562 0.459 -0.766 c 0.192 -0.204 0.408 -0.353 0.648 -0.449 c 0.246 -0.102 0.498 -0.152 0.756 -0.152 z m 0.01 0.521 c -0.21 0 -0.398 0.041 -0.566 0.125 c -0.162 0.084 -0.308 0.2 -0.434 0.344 c -0.12 0.138 -0.215 0.298 -0.287 0.484 c -0.066 0.186 -0.105 0.382 -0.117 0.586 l 2.664 0 c -0.012 -0.486 -0.126 -0.865 -0.342 -1.135 c -0.216 -0.27 -0.522 -0.404 -0.918 -0.404 z" style="fill:#ececec;fill-opacity:1"/>
</svg>
